src/assets/images/common/ci-white.svg

<svg width="125" height="24" viewBox="0 0 125 24" fill="none" xmlns="http://www.w3.org/2000/svg">
<rect width="125" height="24" fill="#EEEEEE"/>
<g id="M_07.Common UI" clip-path="url(#clip0_0_1)">
<rect width="1920" height="5383" transform="translate(-124 -405)" fill="white"/>
<g id="mGNB">
<g id="Frame 4397" clip-path="url(#clip1_0_1)">
<rect width="1800" height="349" transform="translate(-64 -64)" fill="#EEEEEE"/>
<g id="MHeader">
<rect x="-39.5" y="-35.5" width="1297" height="95" rx="4.5" stroke="#9747FF" stroke-dasharray="10 5"/>
<g id="status=dark">
<g id="ci">
<path id="Union" fill-rule="evenodd" clip-rule="evenodd" d="M68.5272 21.4884C68.1304 21.6427 67.6996 21.7481 67.2565 21.7775C66.5676 21.8216 65.4893 21.7065 65.0925 21.04C64.7477 20.4632 65.1341 19.7316 65.4026 19.2231L65.4381 19.1558C65.6329 18.7858 65.8106 18.4207 65.964 18.0605C66.1197 17.7028 66.2244 17.3304 66.2804 16.9457C66.334 16.561 66.2682 16.1518 66.0808 15.7157C65.8568 15.2036 65.4235 14.8262 64.7833 14.5837C64.1407 14.3411 63.408 14.2578 62.5779 14.3338L62.853 14.1794C63.9216 14.0005 64.8977 13.758 65.7838 13.4492C66.6674 13.143 67.4123 12.7901 68.016 12.3932C68.6197 11.9963 69.0749 11.5601 69.3817 11.0872C69.6226 10.7123 69.7468 10.3252 69.7614 9.92827C68.24 8.29643 65.9372 7.67407 65.9372 7.67407L66.0078 8.30133C66.1124 8.99229 65.8958 9.6906 65.3603 10.3938C64.8247 11.0995 64.1212 11.8027 63.2522 12.5059C62.3807 13.2116 61.4192 13.9148 60.37 14.618C59.6714 15.086 59.0166 15.5564 58.4007 16.0293L58.6417 15.4437L64.9951 0C64.7237 0.204496 64.4466 0.415332 64.1651 0.629416L64.1648 0.629626L64.1648 0.629678C62.5781 1.83658 60.8558 3.14667 59.2722 4.0061L51.2853 23.5515H55.3189L57.0959 19.2097C57.5219 18.5187 57.9869 17.9429 58.4932 17.4798C58.9995 17.0192 59.4912 16.6737 59.9684 16.4434C60.4455 16.2131 60.8642 16.0906 61.2244 16.0783C61.5847 16.0661 61.8476 16.1616 62.0107 16.3674C62.1762 16.5978 62.2127 16.855 62.1178 17.1368C62.0229 17.4186 61.8866 17.7445 61.704 18.1169C61.5214 18.4893 61.3437 18.8912 61.1684 19.3273C60.9932 19.7634 60.908 20.2363 60.908 20.7484C60.9518 21.6452 61.2658 22.3362 61.85 22.8237C62.4343 23.3113 63.2011 23.5539 64.1504 23.5539C64.1942 23.5539 64.2375 23.5519 64.2803 23.55C64.3327 23.5476 64.3843 23.5452 64.4352 23.5466C67.3856 23.4927 69.6519 21.6378 69.6519 21.6378C69.6519 21.6378 69.6007 21.1821 69.5813 20.9959C69.1674 21.2556 68.5272 21.4884 68.5272 21.4884ZM89.111 14.998C89.111 14.998 84.7829 15.8654 82.1563 16.2182C82.1563 16.2182 81.0414 17.2547 81.3919 18.5729C81.3919 18.5729 82.8354 17.6982 84.6149 17.3184L82.6285 22.1135C82.3194 22.3168 81.9981 22.4638 81.6646 22.5545C81.3311 22.6452 80.9854 22.6721 80.6251 22.6305C79.2352 22.4883 78.3686 21.67 78.0253 20.1753C77.6821 18.6807 77.9791 16.5907 78.9212 13.9077C79.4835 12.4033 80.1602 11.0654 80.9513 9.89669C81.74 8.72794 82.5482 7.77236 83.3734 7.02994C84.1986 6.28753 84.9995 5.76318 85.7736 5.45935C86.5477 5.15308 87.1806 5.10407 87.6675 5.30744C88.1787 5.53041 88.461 6.02045 88.5121 6.77022C88.5633 7.52243 88.3369 8.42656 87.833 9.48506C87.5263 10.1148 87.1538 10.7053 86.7181 11.2541C86.2799 11.803 85.7639 12.2808 85.1675 12.6875C85.1675 12.6875 88.2371 12.5797 89.7049 12.0651C89.9922 11.8275 90.2648 11.5359 90.5107 11.1733C90.8807 10.6269 91.1095 9.9996 91.2385 9.35274C91.4771 8.15214 91.3602 7.1402 90.8904 6.31203C90.2989 5.27559 89.3812 4.64588 88.1373 4.42046C86.6451 4.15584 85.2186 4.2367 83.8603 4.66548C82.4995 5.09182 81.2605 5.75338 80.1432 6.64771C79.0234 7.54204 78.0424 8.62503 77.1977 9.89669C76.353 11.1684 75.6982 12.5037 75.2357 13.9077C74.7878 15.2504 74.5638 16.527 74.5663 17.7349C74.5663 18.9453 74.7853 20.0063 75.2211 20.9227C75.6544 21.8366 76.3068 22.5643 77.1758 23.1033C78.0448 23.6424 79.1329 23.9119 80.4401 23.9119C80.5959 23.9119 80.7566 23.9021 80.9173 23.885H80.9221C81.1217 23.8629 81.3262 23.8262 81.5331 23.7845L86.1387 22.6329L89.1158 14.9956L89.111 14.998ZM124.129 5.90259C123.983 5.47381 123.564 5.08912 122.875 4.75099C122.532 4.59173 122.164 4.47167 121.775 4.39081C121.385 4.31241 120.993 4.27075 120.604 4.27075C120.214 4.27075 119.83 4.30015 119.455 4.36141C119.08 4.42021 118.759 4.51087 118.488 4.63093C117.617 5.01072 116.896 5.57917 116.329 6.33873C115.762 7.0983 115.295 8.09554 114.934 9.3329H112.617L112.03 10.5016H114.414L111.68 16.9408C111.186 18.1071 110.458 19.1607 109.518 20.0452L109.482 20.0792L109.454 20.1049L109.445 20.1138C107.627 21.6648 106.677 21.9245 106.356 21.9637C106.332 21.9686 106.312 21.9687 106.29 21.9687H106.23C105.852 21.9098 105.682 21.6354 105.713 21.1454C105.745 20.6553 105.942 19.9815 106.305 19.124L111.607 6.68176C111.064 6.88268 110.443 7.03704 109.749 7.14485C109.053 7.25511 108.445 7.28942 107.916 7.25021L104.063 16.2768C103.666 17.2152 103.296 18.0875 102.953 18.8961V18.901C101.665 20.9886 99.7568 21.6746 98.5324 21.8976C98.9243 21.5595 99.2894 21.1919 99.6059 20.7901C99.9418 20.3638 100.229 19.9031 100.46 19.418C100.699 18.9181 100.903 18.3668 101.076 17.7665C101.31 16.9261 101.383 16.1298 101.3 15.3776C101.217 14.6278 100.979 13.9712 100.592 13.4101C100.202 12.849 99.6692 12.403 98.99 12.0722C98.3109 11.7415 97.5027 11.5773 96.5679 11.5773C95.7403 11.5773 94.9516 11.7072 94.197 11.9669C93.4423 12.2266 92.7437 12.5917 92.0986 13.0597C91.4536 13.5301 90.8912 14.0937 90.4117 14.7503C89.9297 15.4094 89.5621 16.1469 89.3041 16.9653C89.0144 17.8841 88.9049 18.7417 88.9706 19.5405C89.0388 20.3393 89.2676 21.0376 89.6619 21.6354C90.0563 22.2333 90.5967 22.7086 91.2905 23.0565C91.9818 23.4069 92.807 23.5809 93.7637 23.5809C94.0972 23.5809 94.4185 23.5564 94.7349 23.5221L94.64 23.5515C96.6945 23.5123 98.2159 23.184 99.3138 22.7993C99.4233 22.7625 99.528 22.7233 99.6302 22.6841C99.7179 22.6498 99.8006 22.6155 99.8834 22.5812L99.9464 22.555L99.9466 22.5549C100.014 22.5268 100.083 22.4984 100.146 22.4685C101.256 21.9564 101.707 21.4541 101.707 21.4541H101.699C102.004 21.1895 102.24 20.9322 102.427 20.6945L102.417 20.7684C102.403 20.8702 102.389 20.9702 102.383 21.067C102.364 21.486 102.417 21.851 102.537 22.1598C102.658 22.4685 102.834 22.7282 103.065 22.9389C103.296 23.1497 103.569 23.3089 103.885 23.4192C104.202 23.5294 104.523 23.5833 104.849 23.5833C105.567 23.5833 106.215 23.4437 106.794 23.1644C107.011 23.059 107.444 22.765 107.929 22.4121C107.929 22.4121 109.009 21.6011 110.234 20.3589L108.878 23.5515C109.47 23.3922 110.119 23.2673 110.828 23.1766C111.536 23.0859 112.12 23.0614 112.583 23.1031L117.817 10.4967H120.2L120.755 9.32799H118.308C118.437 8.92861 118.586 8.49982 118.751 8.03918C118.917 7.58099 119.112 7.162 119.328 6.78222C119.691 6.14272 120.144 5.70903 120.684 5.47871C121.225 5.24839 121.753 5.20428 122.269 5.34395C122.223 5.70413 122.254 5.99815 122.366 6.22847C122.478 6.45879 122.629 6.63276 122.817 6.75282C123.004 6.87288 123.201 6.93659 123.411 6.94639C123.617 6.95619 123.802 6.91208 123.966 6.81162C124.228 6.63276 124.287 6.32893 124.141 5.89769L124.129 5.90259ZM98.1551 15.4976C98.0382 16.1175 97.8459 16.7864 97.5782 17.5044C97.2934 18.2639 96.9842 18.9573 96.6531 19.5846C96.3196 20.2143 95.9618 20.7582 95.5796 21.2164C95.195 21.6771 94.8055 22.0397 94.4112 22.3092C94.0168 22.5788 93.6249 22.7135 93.233 22.7135C92.8411 22.7135 92.549 22.569 92.3518 22.2798C92.1571 21.9907 92.0402 21.5913 92.0061 21.0817C91.9696 20.572 92.0256 19.9938 92.1717 19.3445C92.3153 18.6952 92.5344 18.0116 92.824 17.2936C93.0942 16.5953 93.3961 15.946 93.732 15.3482C94.0679 14.7503 94.4233 14.2309 94.7982 13.7898C95.1731 13.3512 95.5528 13.0058 95.9399 12.7558C96.3245 12.5059 96.714 12.381 97.1059 12.381C97.454 12.381 97.7242 12.5108 97.9165 12.7705C98.1088 13.0303 98.2257 13.3954 98.2671 13.8633C98.3084 14.3313 98.2719 14.8777 98.1551 15.4952V15.4976ZM44.2552 11.5456C45.2874 11.6461 45.9714 12.1263 46.3073 12.9839L46.3122 12.9766C46.5556 13.5965 46.5459 14.2556 46.2878 14.9539C46.0274 15.6546 45.6598 16.4926 45.1802 17.4703C44.8395 18.1269 44.5376 18.7321 44.2723 19.281C44.0069 19.8298 43.8146 20.3027 43.6953 20.7021C43.6248 20.9398 43.5639 21.1897 43.5688 21.4445C43.5761 21.8341 43.9582 22.0326 44.3307 22.035C44.8711 22.0399 45.3701 21.7924 45.7839 21.5327C45.9568 21.4298 46.132 21.3146 46.3073 21.1603L45.8813 22.2629C45.4407 22.6329 44.9879 22.9342 44.523 23.1548C43.9753 23.4145 43.3521 23.5443 42.7216 23.5443C42.0912 23.5443 41.5264 23.341 41.0225 22.9318C40.5186 22.5226 40.2509 21.9688 40.2168 21.2705C40.1803 20.7535 40.2971 20.19 40.5673 19.5799C40.8351 18.9722 41.1783 18.2886 41.5946 17.5291C42.0814 16.6298 42.4539 15.8801 42.7143 15.2822C42.9748 14.6844 43.1233 14.2115 43.1598 13.8611C43.1988 13.5132 43.1452 13.273 42.9991 13.1432C42.8555 13.0133 42.6194 12.9594 42.2956 12.979C42.0376 12.9986 41.709 13.1285 41.3122 13.3686C40.913 13.6087 40.4699 13.9762 39.9831 14.4761C39.4938 14.9759 38.968 15.6179 38.4033 16.4069C37.8385 17.1958 37.2811 18.149 36.7309 19.2663L34.9563 23.5492H31.4973L32.2933 21.6013C32.1618 21.7361 32.0304 21.8659 31.894 21.9909C31.3707 22.4711 30.8035 22.8558 30.1949 23.1449C29.5839 23.4341 28.9218 23.5786 28.2037 23.5786C27.6365 23.5786 27.1326 23.4047 26.692 23.0543C26.249 22.7039 25.9934 22.2212 25.9252 21.6013L25.8692 21.1015C25.3946 21.8414 24.8396 22.4319 24.2066 22.873C23.5591 23.3214 22.8142 23.5468 21.9647 23.5468C21.2028 23.5468 20.5552 23.3434 20.0197 22.9342C19.4866 22.525 19.119 21.9713 18.9219 21.273C18.7247 20.5747 18.7052 19.7661 18.8634 18.8473C19.0241 17.9309 19.416 16.9631 20.0416 15.9438C20.6697 14.9465 21.3561 14.1233 22.0986 13.474C22.8435 12.8246 23.6102 12.342 24.4014 12.021C25.1925 11.7024 25.9861 11.5579 26.7845 11.5873C27.583 11.6167 28.3473 11.8029 29.0825 12.141C29.657 12.4204 30.285 12.5502 30.969 12.5306C31.6506 12.511 32.3054 12.3714 32.9286 12.1116L29.8274 19.1192C29.0143 21.0157 28.99 21.9639 29.7519 21.9639C30.2533 21.9639 30.8717 21.6552 31.6068 21.0353C32.2714 20.4767 32.9481 19.5652 33.6418 18.3082L36.2149 12.0234C36.7017 12.1043 37.2835 12.0896 37.9554 11.9793C38.6296 11.8691 39.2723 11.7343 39.8857 11.575L39.2139 13.1628L38.8852 13.964C39.652 13.1628 40.4553 12.5723 41.2927 12.19C42.4101 11.6804 43.3984 11.4672 44.2552 11.5456ZM25.0465 20.7535C25.8376 19.8445 26.5898 18.5826 27.3006 16.9655V16.9631L29.0362 12.9202C28.581 12.7413 28.0917 12.6948 27.5684 12.7854C27.045 12.8761 26.5192 13.0868 25.991 13.4151C25.4603 13.7459 24.9442 14.1845 24.4403 14.7334C23.9364 15.2822 23.4764 15.9266 23.0577 16.6641C22.5854 17.5046 22.2519 18.2568 22.0548 18.9257C21.8576 19.5946 21.7675 20.1679 21.7894 20.6482C21.8089 21.126 21.916 21.496 22.1083 21.7557C22.2982 22.0154 22.5586 22.1453 22.8848 22.1453C23.5348 22.1257 24.2553 21.6626 25.0465 20.7535ZM18.0817 7.68641L17.3539 5.68213V5.67723C17.3539 5.67723 27.2418 7.87018 40.7909 5.295C43.7632 4.75595 46.8522 3.99149 49.9511 2.91584C49.9413 2.92401 49.9316 2.93 49.9218 2.93599C49.917 2.93899 49.9121 2.94198 49.9072 2.94525C36.6503 11.0849 21.8986 9.21534 20.9712 9.08793H20.9687C20.9395 9.08058 20.9249 9.08058 20.9249 9.08058L16.3509 20.3761C16.0077 21.1944 15.8081 21.834 15.7497 22.2921C15.6937 22.7503 15.7716 23.1595 15.9858 23.5197C15.3115 23.7182 14.664 23.7745 14.0457 23.6839C13.425 23.5932 12.9698 23.3212 12.6801 22.8606C12.5438 22.6205 12.4732 22.3607 12.4634 22.0814C12.4537 21.8021 12.4829 21.5228 12.5486 21.2434C12.6143 20.9641 12.6995 20.6897 12.7994 20.4202C12.8992 20.1507 13.0014 19.8958 13.1061 19.6557L14.5423 16.1519L7.92109 16.4827L5.08761 23.5491C4.60562 23.5099 4.00923 23.5393 3.30329 23.6398C2.59492 23.7402 1.96688 23.8603 1.41674 23.9999L4.41575 16.664L1.56036 16.8135L0 15.1057H5.05109L8.66597 6.28979C6.9912 5.8659 6.01019 5.16024 6.01019 5.16024C9.67376 4.90052 13.5613 2.42335 13.5613 2.42335L9.19421 13.2704L8.45419 15.1081H14.9805L18.0817 7.68641Z" fill="white"/>
</g>
</g>
</g>
</g>
</g>
</g>
<defs>
<clipPath id="clip0_0_1">
<rect width="1920" height="5383" fill="white" transform="translate(-124 -405)"/>
</clipPath>
<clipPath id="clip1_0_1">
<rect width="1800" height="349" fill="white" transform="translate(-64 -64)"/>
</clipPath>
</defs>
</svg>

<svg width="125" height="24" fill="none" xmlns="http://www.w3.org/2000/svg"><path fill="#EEE" d="M0 0h125v24H0z"/><g clip-path="url(#a)"><path fill="#fff" d="M-124-405h1920v5383H-124z"/><g clip-path="url(#b)"><path fill="#EEE" d="M-64-64h1800v349H-64z"/><rect x="-39.5" y="-35.5" width="1297" height="95" rx="4.5" stroke="#9747FF" stroke-dasharray="10 5"/><path fill-rule="evenodd" clip-rule="evenodd" d="M68.527 21.488a4.31 4.31 0 0 1-1.27.29c-.69.044-1.768-.072-2.165-.738-.344-.577.042-1.308.31-1.817l.036-.067c.195-.37.373-.735.526-1.095.156-.358.26-.73.316-1.115.054-.385-.012-.794-.2-1.23-.223-.512-.656-.89-1.297-1.132-.642-.243-1.375-.326-2.205-.25l.275-.155a17.879 17.879 0 0 0 2.93-.73c.884-.306 1.63-.659 2.233-1.056.604-.397 1.059-.833 1.366-1.306.24-.375.365-.762.38-1.159-1.522-1.632-3.825-2.254-3.825-2.254l.07.627c.105.691-.111 1.39-.647 2.093-.535.706-1.239 1.409-2.108 2.112a39.741 39.741 0 0 1-2.882 2.112 37.51 37.51 0 0 0-1.97 1.411l.242-.585L64.995 0c-.271.204-.548.415-.83.63-1.587 1.207-3.31 2.517-4.893 3.376l-7.987 19.546h4.034l1.777-4.342c.426-.691.89-1.267 1.397-1.73.506-.46.998-.806 1.475-1.037.477-.23.896-.352 1.256-.365.36-.012.624.084.787.29.165.23.202.487.107.769a8.234 8.234 0 0 1-.414.98c-.183.372-.36.774-.536 1.21-.175.436-.26.91-.26 1.421.044.897.358 1.588.942 2.076.584.487 1.351.73 2.3.73.044 0 .087-.002.13-.004.053-.002.104-.005.155-.003 2.95-.054 5.217-1.91 5.217-1.91s-.051-.455-.07-.641c-.415.26-1.055.492-1.055.492Zm20.584-6.49s-4.328.867-6.955 1.22c0 0-1.115 1.037-.764 2.355 0 0 1.443-.875 3.223-1.255l-1.986 4.795c-.31.204-.63.35-.964.442-.334.09-.68.117-1.04.076-1.39-.143-2.256-.961-2.6-2.456-.343-1.494-.046-3.584.896-6.267.563-1.505 1.24-2.843 2.03-4.011.789-1.17 1.597-2.125 2.422-2.867.826-.742 1.626-1.267 2.4-1.57.775-.307 1.408-.356 1.895-.153.51.223.793.713.844 1.463.051.752-.175 1.657-.679 2.715a9.6 9.6 0 0 1-1.115 1.77 7.057 7.057 0 0 1-1.55 1.432s3.07-.107 4.537-.622c.287-.237.56-.53.806-.892.37-.546.599-1.173.728-1.82.238-1.2.121-2.213-.349-3.041-.591-1.036-1.509-1.666-2.753-1.892-1.492-.264-2.918-.183-4.277.245-1.36.427-2.6 1.088-3.717 1.983-1.12.894-2.1 1.977-2.945 3.249a16.629 16.629 0 0 0-1.962 4.01c-.448 1.343-.672 2.62-.67 3.828 0 1.21.22 2.271.655 3.188a5.082 5.082 0 0 0 1.955 2.18c.869.54 1.957.809 3.264.809.156 0 .317-.01.477-.027h.005c.2-.022.404-.059.611-.1l4.606-1.152 2.977-7.637-.005.002Zm35.018-9.095c-.146-.43-.565-.814-1.254-1.152a5.044 5.044 0 0 0-1.1-.36 5.944 5.944 0 0 0-1.171-.12c-.39 0-.774.03-1.149.09s-.696.15-.967.27a5.284 5.284 0 0 0-2.159 1.708c-.567.76-1.034 1.757-1.395 2.994h-2.317l-.587 1.169h2.384l-2.734 6.439a9.15 9.15 0 0 1-2.162 3.104l-.036.034-.028.026-.009.009c-1.818 1.55-2.768 1.81-3.089 1.85a.31.31 0 0 1-.066.005h-.06c-.378-.06-.548-.334-.517-.824.032-.49.229-1.163.592-2.021l5.302-12.442c-.543.2-1.164.355-1.858.463-.696.11-1.304.144-1.833.105l-3.853 9.027-1.11 2.62v.004c-1.288 2.088-3.196 2.774-4.42 2.997a8.071 8.071 0 0 0 1.073-1.108 7.27 7.27 0 0 0 .854-1.372c.239-.5.443-1.051.616-1.651.234-.84.307-1.637.224-2.39-.083-.75-.321-1.406-.708-1.967-.39-.561-.923-1.007-1.602-1.338-.68-.33-1.487-.495-2.422-.495-.828 0-1.616.13-2.371.39a7.971 7.971 0 0 0-2.098 1.093 7.692 7.692 0 0 0-1.687 1.69 7.577 7.577 0 0 0-1.108 2.215c-.29.92-.4 1.777-.333 2.576.068.798.297 1.497.69 2.094a4.113 4.113 0 0 0 1.63 1.421c.69.35 1.516.525 2.473.525.333 0 .654-.025.97-.059l-.094.03c2.055-.04 3.576-.368 4.674-.753.11-.037.214-.076.316-.115.088-.034.17-.069.253-.103l.063-.026c.068-.028.137-.057.2-.087 1.11-.512 1.561-1.014 1.561-1.014h-.008c.305-.265.541-.522.728-.76l-.01.074c-.014.102-.028.202-.034.299-.019.419.034.784.154 1.093.121.308.297.568.528.779.231.21.504.37.82.48.317.11.638.164.964.164.718 0 1.366-.14 1.945-.419.217-.105.65-.399 1.135-.752 0 0 1.08-.81 2.305-2.053l-1.356 3.192c.592-.159 1.241-.284 1.95-.374.708-.091 1.292-.116 1.755-.074l5.234-12.606h2.383l.555-1.169h-2.447c.129-.4.278-.828.443-1.289.166-.458.361-.877.577-1.257.363-.64.816-1.073 1.356-1.303.541-.23 1.069-.275 1.585-.135-.046.36-.015.654.097.884.112.23.263.405.451.525.187.12.384.184.594.193a.95.95 0 0 0 .555-.134c.262-.18.321-.483.175-.914l-.012.005Zm-25.974 9.595c-.117.62-.31 1.288-.577 2.006a17.99 17.99 0 0 1-.925 2.08 9.43 9.43 0 0 1-1.073 1.632 5.84 5.84 0 0 1-1.169 1.093c-.394.27-.786.404-1.178.404-.392 0-.684-.144-.881-.433-.195-.29-.312-.689-.346-1.198-.036-.51.02-1.088.166-1.738.143-.649.362-1.332.652-2.05.27-.699.572-1.348.908-1.946a9.85 9.85 0 0 1 1.066-1.558c.375-.439.755-.784 1.142-1.034.385-.25.774-.375 1.166-.375.348 0 .618.13.81.39.193.26.31.624.351 1.092.041.468.005 1.015-.112 1.632v.003Zm-53.9-3.952c1.032.1 1.716.58 2.052 1.438l.005-.007c.244.62.234 1.279-.024 1.977-.26.7-.628 1.539-1.108 2.516-.34.657-.642 1.262-.908 1.811a9.832 9.832 0 0 0-.577 1.421c-.07.238-.131.488-.126.742.007.39.39.589.762.591.54.005 1.04-.243 1.453-.502a3.4 3.4 0 0 0 .523-.373l-.426 1.103c-.44.37-.893.671-1.358.892-.548.26-1.17.39-1.801.39-.63 0-1.196-.204-1.7-.613-.503-.41-.771-.963-.805-1.662-.037-.517.08-1.08.35-1.69.268-.608.611-1.291 1.028-2.05.486-.9.859-1.65 1.12-2.248.26-.598.408-1.07.445-1.42.039-.349-.015-.589-.16-.719-.145-.13-.38-.184-.704-.164-.258.02-.587.15-.984.39-.399.24-.842.607-1.329 1.107-.49.5-1.015 1.142-1.58 1.93-.564.79-1.122 1.743-1.672 2.86l-1.775 4.283h-3.459l.796-1.948a9.942 9.942 0 0 1-.399.39c-.523.48-1.09.865-1.7 1.154a4.59 4.59 0 0 1-1.99.434 2.36 2.36 0 0 1-1.512-.525c-.443-.35-.699-.833-.767-1.453l-.056-.5c-.474.74-1.03 1.33-1.662 1.772-.648.448-1.393.674-2.242.674-.762 0-1.41-.204-1.945-.613-.533-.409-.901-.963-1.098-1.661-.197-.698-.217-1.507-.059-2.426.161-.916.553-1.884 1.179-2.903.628-.998 1.314-1.82 2.057-2.47.744-.65 1.511-1.132 2.302-1.453a5.753 5.753 0 0 1 2.384-.434c.798.03 1.562.216 2.297.554.575.28 1.203.41 1.887.39a5.463 5.463 0 0 0 1.96-.42l-3.102 7.008c-.813 1.897-.837 2.845-.075 2.845.501 0 1.12-.309 1.855-.929.664-.558 1.341-1.47 2.035-2.727l2.573-6.285c.487.081 1.068.067 1.74-.044.675-.11 1.317-.245 1.93-.404l-.671 1.588-.329.801c.767-.801 1.57-1.392 2.408-1.774 1.117-.51 2.105-.723 2.962-.644Zm-19.209 9.207c.792-.909 1.544-2.17 2.255-3.788v-.002l1.735-4.043a2.688 2.688 0 0 0-1.468-.135c-.523.091-1.049.302-1.577.63-.53.33-1.047.77-1.55 1.318a10.516 10.516 0 0 0-1.383 1.931c-.473.84-.806 1.593-1.003 2.262-.197.669-.288 1.242-.266 1.722.02.478.127.848.32 1.108.19.26.45.39.776.39.65-.02 1.37-.483 2.162-1.393ZM18.083 7.686l-.728-2.004v-.005s9.888 2.193 23.437-.382a61.305 61.305 0 0 0 9.16-2.38.235.235 0 0 1-.03.021l-.014.01C36.65 11.084 21.9 9.215 20.971 9.087h-.002c-.03-.007-.044-.007-.044-.007L16.35 20.376c-.343.818-.543 1.458-.601 1.916-.056.458.022.867.236 1.228-.675.198-1.322.255-1.94.164-.621-.09-1.076-.363-1.366-.823-.136-.24-.207-.5-.217-.78-.01-.279.02-.558.086-.838.065-.279.15-.553.25-.823.1-.27.202-.524.307-.764l1.436-3.504-6.62.33-2.834 7.067c-.482-.04-1.079-.01-1.785.09-.708.101-1.336.221-1.886.36l2.999-7.335-2.856.15L0 15.106h5.051L8.666 6.29C6.991 5.866 6.01 5.16 6.01 5.16c3.664-.26 7.551-2.737 7.551-2.737L9.194 13.27l-.74 1.838h6.526l3.102-7.422Z" fill="#fff"/></g></g><defs><clipPath id="a"><path fill="#fff" transform="translate(-124 -405)" d="M0 0h1920v5383H0z"/></clipPath><clipPath id="b"><path fill="#fff" transform="translate(-64 -64)" d="M0 0h1800v349H0z"/></clipPath></defs></svg>
